icons/notification-off-line.svg

<svg viewBox="0 0 24 24" fill="currentColor" xmlns="http://www.w3.org/2000/svg">
    <path d="M18.5859 20H4.00016C3.72401 20 3.50016 19.7762 3.50016 19.5C3.50016 19.3918 3.53525 19.2866 3.60016 19.2L4.00016 18.6667V10C4.00016 8.67022 4.32462 7.41619 4.8987 6.31279L1.39355 2.80765L2.80777 1.39343L22.6068 21.1924L21.1925 22.6066L18.5859 20ZM6.40776 7.82185C6.14458 8.49707 6.00016 9.23169 6.00016 10V18H16.5859L6.40776 7.82185ZM20.0002 15.7858L18.0002 13.7858V10C18.0002 6.68633 15.3139 4.00003 12.0002 4.00003C10.9117 4.00003 9.89096 4.28986 9.01087 4.79655L7.55919 3.34486C8.8297 2.49537 10.3571 2.00003 12.0002 2.00003C16.4184 2.00003 20.0002 5.58176 20.0002 10V15.7858ZM9.50016 21H14.5002C14.5002 22.3807 13.3809 23.5 12.0002 23.5C10.6194 23.5 9.50016 22.3807 9.50016 21Z"/>
</svg>

<svg xmlns="http://www.w3.org/2000/svg" viewBox="0 0 24 24">
    <g>
        <path fill="none" d="M0 0h24v24H0z"/>
        <path d="M18.586 20H4a.5.5 0 0 1-.4-.8l.4-.533V10c0-1.33.324-2.584.899-3.687L1.393 2.808l1.415-1.415 19.799 19.8-1.415 1.414L18.586 20zM6.408 7.822A5.985 5.985 0 0 0 6 10v8h10.586L6.408 7.822zM20 15.786l-2-2V10a6 6 0 0 0-8.99-5.203L7.56 3.345A8 8 0 0 1 20 10v5.786zM9.5 21h5a2.5 2.5 0 1 1-5 0z"/>
    </g>
</svg>
